X: 36431
T: Seann Triubhais Uilleachain
R: reel
M: 4/4
K: Dminor
D|A,DDFE2A,E|F2E>D ECCG,|A,DDFE2A,E|F2E>D CA,A,B,|
A,DDFE2A,E|F2E>D ECCE|A,DDFE2A,A|GF E>D CA,A,2|
AcAF GcGE|F2E>D ECC2|AcAF GcGE|F2E>D CA,A,2|
AcAF GcGE|F2E>D ECC2,|AcBc GcEC|DF E>D CA,A,2|
Addfe2Ae|f2e>d ecce|Addfe2Aa|gfe>d cAAB|
Addfe2Ae|f2e>d ecce|Addfe2Aa|gfe>d cAA2|
AFcF GEcE|FD G>F ECC2|AFcF GEcE|F2E>D CA,A,2|
AFcF GEcE|FD G>F ECC2|AcBc GcEe|DF E>D CA,A,G,||

